Simply-White-Circles/scalable/devices/network-server-database.svg

<svg xmlns="http://www.w3.org/2000/svg" width="48" height="48" viewBox="0 0 12.7 12.7"><path d="M6.344.073a6.29 6.29 0 0 0-6.29 6.29 6.29 6.29 0 0 0 6.29 6.288 6.29 6.29 0 0 0 6.29-6.289 6.29 6.29 0 0 0-6.29-6.29zm-.018.936a5.407 5.407 0 0 1 5.407 5.407 5.407 5.407 0 0 1-1.04 3.18.912.912 0 0 0-.292-.045H7.55v-.29c0-.126-.174-.226-.388-.226h-.361V8.44H8.44c.214 0 .387-.1.387-.226V2.239c0-.125-.173-.226-.387-.226H4.337c-.215 0-.387.101-.387.226v5.976c0 .125.172.226.387.226h1.561v.594h-.387c-.214 0-.387.1-.387.225v.29H2.196a.954.954 0 0 0-.244.033A5.407 5.407 0 0 1 .919 6.416 5.407 5.407 0 0 1 6.326 1.01zM4.721 2.685h3.254c.17 0 .307.08.307.178v4.738c0 .1-.137.18-.307.18H4.72c-.17 0-.307-.08-.307-.18V2.863c0-.099.137-.178.307-.178zm.235.304a.283.283 0 0 0-.283.284v.51c0 .157.126.283.283.283h2.792a.282.282 0 0 0 .283-.282v-.511a.282.282 0 0 0-.283-.284H4.956zm0 1.588a.283.283 0 0 0-.283.283v.511c0 .157.126.283.283.283h2.792a.282.282 0 0 0 .283-.283v-.51a.282.282 0 0 0-.283-.284H4.956zm0 1.587a.283.283 0 0 0-.283.284v.51c0 .157.126.283.283.283h2.792a.282.282 0 0 0 .283-.282v-.511a.282.282 0 0 0-.283-.284H4.956zM2.6 10.325h2.524v.239c0 .125.173.226.387.226h1.652c.214 0 .387-.101.387-.226v-.239h2.509a5.407 5.407 0 0 1-3.733 1.498A5.407 5.407 0 0 1 2.6 10.325z" fill="#e6e6e6"/></svg>

<?xml version="1.0" encoding="UTF-8" standalone="no"?>
<svg
   xmlns:dc="http://purl.org/dc/elements/1.1/"
   xmlns:cc="http://creativecommons.org/ns#"
   xmlns:rdf="http://www.w3.org/1999/02/22-rdf-syntax-ns#"
   xmlns:svg="http://www.w3.org/2000/svg"
   xmlns="http://www.w3.org/2000/svg"
   xmlns:sodipodi="http://sodipodi.sourceforge.net/DTD/sodipodi-0.dtd"
   xmlns:inkscape="http://www.inkscape.org/namespaces/inkscape"
   width="48"
   height="48"
   viewBox="0 0 12.7 12.7"
   version="1.1"
   id="svg4"
   sodipodi:docname="network-server-database.svg"
   inkscape:version="0.92.4 (5da689c313, 2019-01-14)">
  <metadata
     id="metadata10">
    <rdf:RDF>
      <cc:Work
         rdf:about="">
        <dc:format>image/svg+xml</dc:format>
        <dc:type
           rdf:resource="http://purl.org/dc/dcmitype/StillImage" />
        <dc:title></dc:title>
      </cc:Work>
    </rdf:RDF>
  </metadata>
  <defs
     id="defs8" />
  <sodipodi:namedview
     pagecolor="#ffffff"
     bordercolor="#666666"
     borderopacity="1"
     objecttolerance="10"
     gridtolerance="10"
     guidetolerance="10"
     inkscape:pageopacity="0"
     inkscape:pageshadow="2"
     inkscape:window-width="1087"
     inkscape:window-height="480"
     id="namedview6"
     showgrid="false"
     inkscape:zoom="4.9166667"
     inkscape:cx="2.1355932"
     inkscape:cy="24"
     inkscape:window-x="0"
     inkscape:window-y="25"
     inkscape:window-maximized="0"
     inkscape:current-layer="svg4" />
  <path
     d="m 6.344,0.073 a 6.29,6.29 0 0 0 -6.29,6.29 6.29,6.29 0 0 0 6.29,6.288 6.29,6.29 0 0 0 6.29,-6.289 6.29,6.29 0 0 0 -6.29,-6.29 z M 6.326,1.009 a 5.407,5.407 0 0 1 5.407,5.407 5.407,5.407 0 0 1 -1.04,3.18 0.912,0.912 0 0 0 -0.292,-0.045 H 7.55 V 9.261 C 7.55,9.135 7.376,9.035 7.162,9.035 H 6.801 V 8.44 H 8.44 c 0.214,0 0.387,-0.1 0.387,-0.226 V 2.239 C 8.827,2.114 8.654,2.013 8.44,2.013 H 4.337 C 4.122,2.013 3.95,2.114 3.95,2.239 v 5.976 c 0,0.125 0.172,0.226 0.387,0.226 H 5.898 V 9.035 H 5.511 c -0.214,0 -0.387,0.1 -0.387,0.225 V 9.55 H 2.196 A 0.954,0.954 0 0 0 1.952,9.583 5.407,5.407 0 0 1 0.91900003,6.416 5.407,5.407 0 0 1 6.326,1.01 Z M 4.721,2.685 h 3.254 c 0.17,0 0.307,0.08 0.307,0.178 v 4.738 c 0,0.1 -0.137,0.18 -0.307,0.18 H 4.72 c -0.17,0 -0.307,-0.08 -0.307,-0.18 V 2.863 C 4.413,2.764 4.55,2.685 4.72,2.685 Z M 4.956,2.989 A 0.283,0.283 0 0 0 4.673,3.273 v 0.51 c 0,0.157 0.126,0.283 0.283,0.283 H 7.748 A 0.282,0.282 0 0 0 8.031,3.784 V 3.273 A 0.282,0.282 0 0 0 7.748,2.989 Z m 0,1.588 A 0.283,0.283 0 0 0 4.673,4.86 v 0.511 c 0,0.157 0.126,0.283 0.283,0.283 H 7.748 A 0.282,0.282 0 0 0 8.031,5.371 V 4.861 A 0.282,0.282 0 0 0 7.748,4.577 Z m 0,1.587 A 0.283,0.283 0 0 0 4.673,6.448 v 0.51 c 0,0.157 0.126,0.283 0.283,0.283 H 7.748 A 0.282,0.282 0 0 0 8.031,6.959 V 6.448 A 0.282,0.282 0 0 0 7.748,6.164 Z M 2.6,10.325 h 2.524 v 0.239 c 0,0.125 0.173,0.226 0.387,0.226 h 1.652 c 0.214,0 0.387,-0.101 0.387,-0.226 v -0.239 h 2.509 A 5.407,5.407 0 0 1 6.326,11.823 5.407,5.407 0 0 1 2.6,10.325 Z"
     id="path2"
     inkscape:connector-curvature="0"
     style="fill:#e6e6e6" />
</svg>
